source/icon/workshops.svg

<svg width="72" height="72" viewBox="0 0 72 72" fill="none" xmlns="http://www.w3.org/2000/svg">
<rect width="72" height="72" fill="white"/>
<path d="M12 68C9.87827 68 7.84344 67.1571 6.34315 65.6569C4.84285 64.1566 4 62.1217 4 60V48H24V68H12ZM26 68V48H46V68H26ZM24 46H4V26H24V46ZM26 26V46H46V26H26ZM48 68V48H68V60C68 62.1217 67.1571 64.1566 65.6569 65.6569C64.1566 67.1571 62.1217 68 60 68H48ZM48 46V26H68V46H48ZM4 12V24H68V12C68 9.87827 67.1571 7.84344 65.6569 6.34315C64.1566 4.84285 62.1217 4 60 4H12C9.87827 4 7.84344 4.84285 6.34315 6.34315C4.84285 7.84344 4 9.87827 4 12ZM13 16C12.4696 16 11.9609 15.7893 11.5858 15.4142C11.2107 15.0391 11 14.5304 11 14C11 13.4696 11.2107 12.9609 11.5858 12.5858C11.9609 12.2107 12.4696 12 13 12H59C59.5304 12 60.0391 12.2107 60.4142 12.5858C60.7893 12.9609 61 13.4696 61 14C61 14.5304 60.7893 15.0391 60.4142 15.4142C60.0391 15.7893 59.5304 16 59 16H13Z" fill="#475497"/>
</svg>

<svg fill="none" height="72" width="72" xmlns="http://www.w3.org/2000/svg"><path d="m0 0h72v72h-72z" fill="#fff"/><path d="m12 68a8 8 0 0 1 -8-8v-12h20v20zm14 0v-20h20v20zm-2-22h-20v-20h20zm2-20v20h20v-20zm22 42v-20h20v12a8 8 0 0 1 -8 8zm0-22v-20h20v20zm-44-34v12h64v-12a8 8 0 0 0 -8-8h-48a8 8 0 0 0 -8 8zm9 4a2 2 0 0 1 0-4h46a2 2 0 0 1 0 4z" fill="#475497"/></svg>
